X:1
T:Title
%%score ( 1 2 ) { 3 | 4 }
L:1/8
Q:1/4=95
M:4/4
K:G
V:1 treble nm="Grand Piano, Soprano"
V:2 treble 
V:3 bass nm="Choir Pad, Be Ye Strong in the Lord"
V:4 bass 
V:1
 [B,D][B,D] [DG]2 [DG]>[DG] [DF]2 | DD[Dc][Ec] [Fc][Dc] [DB]2 | DD[CE][DF] [DG][DA][DB][DB] | %3
w: By~Ira~David~Sankey * * * * *|||
 [^CA][CG] [Fd]6 | DD[Dc][Ec] [Fc][Dc] [DB]2 | DD[Dc][Ec] [Fc][Dc] [DB]2 | %6
w: |||
 DD[CE][DF] [DG][EA][DB][DB] | [FA]>G G6 | z2 d6 | z2 d6 | GG [Ge]2- [Ge][Gd][Fc][GB] | %11
w: |||||
 [DA]>[CG] [DA]6 | DD[DB][GB] [FA]>[FA] G2 | [DG][DF][CE][EG] [DF][CE] [B,D]2 | %14
w: |||
 [B,D][B,D] [DG]2 [B,G]>[B,G] [DB]2 | [FA]>G G6- | G2 z2 z4 |] %17
w: |||
V:2
 x8 | x8 | x8 | x8 | x8 | x8 | x8 | x8 | d>e z2 F>G A2 | d>e z2 G>A B2 | x8 | x8 | x8 | x8 | x8 | %15
 x8 | x8 |] %17
V:3
 G,G, B,2 B,>B, A,2 | F,F,F,G, A,F, G,2 | G,G,G,A, G,F,G,G, | A,A, A,6 | F,F,F,G, A,F, G,2 | %5
 G,G,F,G, A,F, G,2 | G,G,G,A, G,G,G,G, | C>B, B,6 | z4 A,>B, C2 | z4 B,>C D2 | %10
 B,B,[K:treble] C2- C/ z/ D DD | D>[K:bass]A, F,6 | CCB,[K:treble]D C>C B,2 | %13
 G,[K:bass]G,G,G, G,G, G,2 | G,G, G,2 G,>G, G,2 | C>B, B,6- | B,2 z2 z4 |] %17
V:4
 z2 G,2 G,>G, D,2 | D,D,D,D, D,D, G,,2 | B,,B,,C,C, B,,D, z2 | E,E, D,6 | D,D,D,D, D,D, G,,2 | %5
 B,,B,,D,D, D,D, G,,2 | B,,B,,C,C, B,,C,D,D, | D,>D, G,,6 | z4 D,>D, D,2 | z4 G,>G, G,2 | %10
 G,G, z2 z B,A,G, | F,>E, D,6 | F,F,G,G, D,>D, E,2 | B,,B,,C,C, C,C, G,,2 | G,,G,, B,,2 E,>E, D,2 | %15
 D,>D, G,,6- | G,,2 z2 z4 |] %17

